icons/apache/apache-original.svg

<svg xmlns="http://www.w3.org/2000/svg" viewBox="0 0 128 128"><g fill="none"><path fill="url(#a)" d="M86.5223 0.605703C84.5149 1.79083 81.1744 5.14624 77.2042 10.0127L80.8559 16.9161C83.4261 13.2496 86.0334 9.93862 88.6629 7.11652C88.8703 6.89431 88.9666 6.79061 88.9666 6.79061C88.8703 6.89431 88.7592 7.01282 88.6629 7.11652C87.8111 8.04981 85.226 11.0719 81.3299 17.0568C85.0853 16.8716 90.848 16.1013 95.5515 15.3013C96.9588 7.45725 94.1812 3.87222 94.1812 3.87222C94.1812 3.87222 90.6554-1.83123 86.5223 0.605703V0.605703Z"/><path fill="#BD202E" d="M74.2339 58.5957C73.7672 58.6772 73.2932 58.766 72.7969 58.8475C72.7969 58.8475 72.7895 58.8475 72.7895 58.8549C73.0413 58.8179 73.2858 58.7809 73.5302 58.7438C73.7598 58.692 73.9968 58.6475 74.2339 58.5957Z"/><path fill="#BD202E" d="M74.2339 58.5957C73.7672 58.6772 73.2932 58.766 72.7969 58.8475C72.7969 58.8475 72.7895 58.8475 72.7895 58.8549C73.0413 58.8179 73.2858 58.7809 73.5302 58.7438C73.7598 58.692 73.9968 58.6475 74.2339 58.5957Z" opacity=".35"/><path fill="#BD202E" d="M75.456 52.5589C75.456 52.5589 75.456 52.5663 75.456 52.5589C75.4486 52.5589 75.4486 52.5589 75.4486 52.5663C75.5227 52.5589 75.6042 52.5441 75.6782 52.5293C75.9893 52.4849 76.293 52.433 76.5893 52.3589C76.2189 52.4256 75.8486 52.4923 75.456 52.5589V52.5589Z"/><path fill="#BD202E" d="M75.456 52.5589C75.456 52.5589 75.456 52.5663 75.456 52.5589C75.4486 52.5589 75.4486 52.5589 75.4486 52.5663C75.5227 52.5589 75.6042 52.5441 75.6782 52.5293C75.9893 52.4849 76.293 52.433 76.5893 52.3589C76.2189 52.4256 75.8486 52.4923 75.456 52.5589V52.5589Z" opacity=".35"/><path fill="url(#b)" d="M70.0711 34.7597C71.1822 32.6783 72.3081 30.6488 73.4414 28.6785C74.6191 26.6194 75.819 24.6343 77.0264 22.7084C77.0931 22.5973 77.1745 22.4788 77.2412 22.3677C78.4337 20.4789 79.6411 18.6568 80.8484 16.9235L77.1968 10.0201C76.9227 10.3534 76.6486 10.6941 76.3672 11.0497C75.3079 12.3681 74.2191 13.7755 73.0932 15.2791C71.8266 16.9679 70.5304 18.7753 69.2045 20.6715C67.9898 22.4195 66.7454 24.2491 65.501 26.1527C64.4418 27.7675 63.39 29.4266 62.3382 31.1303C62.3011 31.1895 62.2641 31.2562 62.2271 31.3229L66.9898 40.7298C67.9972 38.6929 69.0342 36.7004 70.0711 34.7597Z"/><path fill="url(#c)" d="M48.3832 87.7351C47.7535 89.461 47.1165 91.2313 46.4869 93.0312C46.4795 93.0534 46.4721 93.083 46.4573 93.1053C46.3684 93.3571 46.2721 93.6163 46.1907 93.8682C45.761 95.0829 45.3907 96.1792 44.5389 98.6606C45.9388 99.2976 47.0647 100.986 48.1313 102.897C48.0202 100.92 47.2054 99.0605 45.6425 97.6236C52.5533 97.9347 58.5086 96.1866 61.59 91.135C61.864 90.6831 62.1159 90.2165 62.3455 89.7054C60.9456 91.4831 59.2049 92.2312 55.9384 92.0534C55.931 92.0534 55.9236 92.0609 55.9161 92.0609C55.9236 92.0609 55.931 92.0534 55.9384 92.0534C60.753 89.898 63.1603 87.8314 65.3009 84.4093C65.8046 83.5946 66.3009 82.7131 66.8045 81.728C62.5973 86.0463 57.7309 87.2759 52.5978 86.3426L48.7461 86.7648C48.6202 87.0907 48.5091 87.4092 48.3832 87.7351V87.7351Z"/><path fill="url(#d)" d="M50.1832 79.1207C51.0128 76.9726 51.872 74.795 52.746 72.6025C53.5905 70.4989 54.4497 68.3804 55.3385 66.262C56.2274 64.1436 57.131 62.0029 58.0495 59.8697C58.9828 57.6994 59.9457 55.5366 60.9309 53.3811C61.9012 51.2479 62.8789 49.1294 63.8789 47.0407C64.2344 46.2851 64.6048 45.5296 64.9677 44.7815C65.5973 43.4853 66.2343 42.1964 66.8788 40.9224C66.9158 40.8557 66.9454 40.7817 66.9824 40.715L62.2197 31.308C62.1456 31.4339 62.0641 31.5673 61.9827 31.6858C60.8716 33.5005 59.768 35.3523 58.6865 37.2411C57.5903 39.1521 56.5162 41.1002 55.4644 43.0779C54.583 44.7445 53.7164 46.4185 52.8646 48.1221C52.6942 48.4628 52.5312 48.8109 52.3609 49.1517C51.3239 51.2923 50.3906 53.3441 49.5388 55.3366C48.5759 57.5809 47.7315 59.729 46.9982 61.7659C46.5093 63.1066 46.0723 64.3954 45.6649 65.6398C45.3316 66.699 45.0205 67.7656 44.7094 68.8249C43.9983 71.3136 43.3835 73.8024 42.8798 76.2764L47.6648 85.7204C48.2944 84.0316 48.9462 82.3132 49.6129 80.5799C49.8128 80.0836 49.9906 79.5947 50.1832 79.1207V79.1207Z"/><path fill="url(#e)" d="M42.8279 76.5949C42.2279 79.617 41.7983 82.6243 41.5835 85.6167C41.5761 85.7204 41.5687 85.8241 41.5613 85.9278C40.0651 83.5353 36.0726 81.2021 36.08 81.2243C38.9466 85.3723 41.1169 89.4906 41.4354 93.5349C39.9021 93.846 37.8059 93.3941 35.3838 92.5053C37.9096 94.8311 39.8058 95.4681 40.5539 95.6459C38.2281 95.794 35.8134 97.3866 33.3765 99.2235C36.9393 97.7717 39.8206 97.194 41.8798 97.6606C38.6059 106.919 35.3319 117.141 32.0506 128C33.058 127.704 33.6579 127.022 33.9913 126.111C34.5764 124.148 38.4503 111.245 44.5315 94.3052C44.7093 93.8237 44.8797 93.3349 45.0574 92.8534C45.1019 92.7127 45.1537 92.5794 45.2056 92.4534C45.8426 90.6757 46.5166 88.861 47.1981 87.0092C47.3536 86.587 47.5092 86.1648 47.6721 85.7426C47.6721 85.7352 47.6795 85.7278 47.6795 85.7204L42.8872 76.2764C42.8723 76.3727 42.8501 76.4838 42.8279 76.5949Z"/><path fill="url(#f)" d="M67.7231 41.5002C67.5824 41.7817 67.4491 42.0631 67.3083 42.3446C66.8936 43.1964 66.4788 44.063 66.0491 44.9519C65.5899 45.9148 65.1307 46.8925 64.664 47.8999C64.427 48.4036 64.19 48.9147 63.9529 49.4332C63.2419 50.9812 62.5234 52.5812 61.7901 54.2329C60.8938 56.2551 59.9679 58.3661 59.0421 60.5586C58.1606 62.6474 57.2495 64.8028 56.3459 67.0398C55.4792 69.1582 54.6052 71.3507 53.7164 73.6024C52.9238 75.6098 52.1238 77.6837 51.3239 79.8096C51.2868 79.9059 51.2498 80.017 51.2128 80.1133C50.4128 82.2243 49.6054 84.3946 48.7981 86.6167C48.7833 86.6685 48.761 86.713 48.7462 86.7722L52.5979 86.35C52.5238 86.3352 52.4423 86.3278 52.3683 86.313C56.9681 85.7426 63.0937 82.2984 67.0417 78.0541C68.8638 76.0986 70.5156 73.7876 72.0415 71.084C73.1747 69.0767 74.2488 66.8398 75.271 64.3732C76.1598 62.2178 77.0116 59.8771 77.8338 57.3513C76.7746 57.9069 75.5672 58.3217 74.234 58.6031C73.9969 58.655 73.7599 58.6994 73.5155 58.7439C73.271 58.7883 73.0266 58.8253 72.7748 58.855C72.7748 58.855 72.7822 58.855 72.7822 58.8476C77.0783 57.1958 79.7819 54.0107 81.7447 50.1072C80.6189 50.8775 78.7819 51.8849 76.582 52.3664C76.2857 52.433 75.982 52.4849 75.6709 52.5367C75.5969 52.5441 75.5154 52.559 75.4413 52.5738H75.4487C75.4487 52.5738 75.4487 52.5738 75.4561 52.5738C76.9524 51.9516 78.2042 51.2479 79.293 50.4257C79.53 50.2479 79.7596 50.0702 79.967 49.8776C80.3004 49.5887 80.6115 49.285 80.9226 48.9739C81.1151 48.7665 81.3003 48.5591 81.4855 48.3443C81.9151 47.8332 82.3151 47.2851 82.6854 46.6925C82.7965 46.5074 82.9151 46.3296 83.0188 46.137C83.1669 45.863 83.3002 45.5889 83.4336 45.3296C84.0335 44.1297 84.515 43.0483 84.8927 42.1076C85.0853 41.6335 85.2483 41.2039 85.3964 40.7891C85.4557 40.6262 85.5075 40.4706 85.5594 40.3151C85.7149 39.8632 85.8334 39.4632 85.9297 39.1077C86.0779 38.5744 86.1668 38.1522 86.2112 37.8485C86.0631 37.9596 85.9001 38.0781 85.7075 38.1892C84.4113 38.967 82.1892 39.6632 80.3967 39.9966L83.9298 39.6114L80.3967 39.9966C80.3744 40.004 80.3448 40.004 80.3152 40.0114C80.13 40.041 79.9596 40.0706 79.7745 40.0928C79.8041 40.078 79.8337 40.0632 79.8633 40.0484L67.7676 41.3743C67.7676 41.4039 67.7454 41.4557 67.7231 41.5002V41.5002Z"/><path fill="url(#g)" d="M81.3372 17.0568C80.2632 18.7086 79.0929 20.5826 77.8189 22.7084C77.7522 22.8121 77.6781 22.938 77.6189 23.0417C76.53 24.8787 75.3745 26.8934 74.145 29.1081C73.0932 31.0191 71.9969 33.0635 70.8562 35.2634C69.8637 37.1818 68.8415 39.2188 67.7823 41.3742L79.878 40.0484C83.4038 38.4262 84.9741 36.967 86.5 34.8412C86.8999 34.256 87.3147 33.6487 87.7147 33.0116C88.9591 31.071 90.1739 28.9378 91.2627 26.8119C92.3145 24.7602 93.2404 22.7306 93.9515 20.8937C94.4033 19.7308 94.7663 18.6493 95.0181 17.6938C95.2403 16.8568 95.4107 16.0568 95.544 15.2939C90.8553 16.1013 85.0852 16.8716 81.3372 17.0568V17.0568Z"/><path fill="#BD202E" d="M73.5155 58.729C73.2711 58.7735 73.0266 58.8105 72.7748 58.8401C73.0266 58.8179 73.2785 58.7735 73.5155 58.729Z"/><path fill="#BD202E" d="M73.5155 58.729C73.2711 58.7735 73.0266 58.8105 72.7748 58.8401C73.0266 58.8179 73.2785 58.7735 73.5155 58.729Z" opacity=".35"/><path fill="url(#h)" d="M73.5155 58.729C73.2711 58.7735 73.0266 58.8105 72.7748 58.8401C73.0266 58.8179 73.2785 58.7735 73.5155 58.729Z"/><path fill="#BD202E" d="M75.4486 52.5663C75.5227 52.5589 75.6042 52.5441 75.6782 52.5293C75.6042 52.5367 75.5301 52.5589 75.4486 52.5663Z"/><path fill="#BD202E" d="M75.4486 52.5663C75.5227 52.5589 75.6042 52.5441 75.6782 52.5293C75.6042 52.5367 75.5301 52.5589 75.4486 52.5663Z" opacity=".35"/><path fill="url(#i)" d="M75.4486 52.5663C75.5227 52.5589 75.6042 52.5441 75.6782 52.5293C75.6042 52.5367 75.5301 52.5589 75.4486 52.5663Z"/><path fill="#BD202E" d="M75.4486 52.5663C75.456 52.5663 75.456 52.5589 75.4486 52.5663C75.456 52.5589 75.456 52.5663 75.4486 52.5663Z"/><path fill="#BD202E" d="M75.4486 52.5663C75.456 52.5663 75.456 52.5589 75.4486 52.5663C75.456 52.5589 75.456 52.5663 75.4486 52.5663Z" opacity=".35"/><path fill="url(#j)" d="M75.4486 52.5663C75.456 52.5663 75.456 52.5589 75.4486 52.5663C75.456 52.5589 75.456 52.5663 75.4486 52.5663Z"/><defs><linearGradient id="a" x1="80.277" x2="107.078" y1="10.871" y2="3.42" gradientUnits="userSpaceOnUse"><stop stop-color="#F59723"/><stop offset=".312" stop-color="#F69822"/><stop offset=".838" stop-color="#E87726"/></linearGradient><linearGradient id="b" x1="21.611" x2="76.124" y1="131.156" y2="14.252" gradientUnits="userSpaceOnUse"><stop offset=".323" stop-color="#9C2063"/><stop offset=".63" stop-color="#C82037"/><stop offset=".751" stop-color="#CC2135"/><stop offset="1" stop-color="#E87726"/></linearGradient><linearGradient id="c" x1="39.903" x2="72.387" y1="122.505" y2="52.841" gradientUnits="userSpaceOnUse"><stop stop-color="#282661"/><stop offset=".095" stop-color="#662E8C"/><stop offset=".788" stop-color="#9E2064"/><stop offset=".949" stop-color="#CC2032"/></linearGradient><linearGradient id="d" x1="23.576" x2="78.089" y1="124.078" y2="7.174" gradientUnits="userSpaceOnUse"><stop offset=".323" stop-color="#9C2063"/><stop offset=".63" stop-color="#C82037"/><stop offset=".751" stop-color="#CC2135"/><stop offset="1" stop-color="#E87726"/></linearGradient><linearGradient id="e" x1="29.138" x2="57.786" y1="116.292" y2="54.855" gradientUnits="userSpaceOnUse"><stop stop-color="#282661"/><stop offset=".095" stop-color="#662E8C"/><stop offset=".788" stop-color="#9E2064"/><stop offset=".949" stop-color="#CC2032"/></linearGradient><linearGradient id="f" x1="35.68" x2="90.192" y1="129.722" y2="12.818" gradientUnits="userSpaceOnUse"><stop offset=".323" stop-color="#9C2063"/><stop offset=".63" stop-color="#C82037"/><stop offset=".751" stop-color="#CC2135"/><stop offset="1" stop-color="#E87726"/></linearGradient><linearGradient id="g" x1="31.692" x2="86.205" y1="136.692" y2="19.788" gradientUnits="userSpaceOnUse"><stop offset=".323" stop-color="#9C2063"/><stop offset=".63" stop-color="#C82037"/><stop offset=".751" stop-color="#CC2135"/><stop offset="1" stop-color="#E87726"/></linearGradient><linearGradient id="h" x1="39.272" x2="93.784" y1="131.397" y2="14.493" gradientUnits="userSpaceOnUse"><stop offset=".323" stop-color="#9C2063"/><stop offset=".63" stop-color="#C82037"/><stop offset=".751" stop-color="#CC2135"/><stop offset="1" stop-color="#E87726"/></linearGradient><linearGradient id="i" x1="38.865" x2="93.378" y1="131.208" y2="14.303" gradientUnits="userSpaceOnUse"><stop offset=".323" stop-color="#9C2063"/><stop offset=".63" stop-color="#C82037"/><stop offset=".751" stop-color="#CC2135"/><stop offset="1" stop-color="#E87726"/></linearGradient><linearGradient id="j" x1="69.406" x2="81.455" y1="65.493" y2="39.654" gradientUnits="userSpaceOnUse"><stop offset=".323" stop-color="#9C2063"/><stop offset=".63" stop-color="#C82037"/><stop offset=".751" stop-color="#CC2135"/><stop offset="1" stop-color="#E87726"/></linearGradient></defs></g></svg>

<svg xmlns="http://www.w3.org/2000/svg" viewBox="0 0 128 128"><path fill="url(#a)" d="M86.522.606c-2.007 1.185-5.348 4.54-9.318 9.407l3.652 6.903c2.57-3.666 5.177-6.977 7.807-9.8l.304-.325-.304.326c-.852.933-3.437 3.955-7.333 9.94 3.755-.185 9.518-.956 14.222-1.756 1.407-7.844-1.37-11.429-1.37-11.429S90.654-1.83 86.521.606Z"/><path fill="#BD202E" d="M74.234 58.596c-.467.081-.94.17-1.437.252 0 0-.007 0-.007.007l.74-.111c.23-.052.467-.096.704-.148Z"/><path fill="#BD202E" d="M74.234 58.596c-.467.081-.94.17-1.437.252 0 0-.007 0-.007.007l.74-.111c.23-.052.467-.096.704-.148Z" opacity=".35"/><path fill="#BD202E" d="M75.456 52.559s0 .007 0 0c-.007 0-.007 0-.007.007.074-.007.155-.022.23-.037.31-.044.614-.096.91-.17-.37.067-.74.133-1.133.2Z"/><path fill="#BD202E" d="M75.456 52.559s0 .007 0 0c-.007 0-.007 0-.007.007.074-.007.155-.022.23-.037.31-.044.614-.096.91-.17-.37.067-.74.133-1.133.2Z" opacity=".35"/><path fill="url(#b)" d="M70.071 34.76a219.903 219.903 0 0 1 3.37-6.081 171.901 171.901 0 0 1 3.585-5.97c.067-.112.148-.23.215-.341a144.48 144.48 0 0 1 3.607-5.444l-3.651-6.904a71.1 71.1 0 0 0-.83 1.03 156.993 156.993 0 0 0-3.274 4.23 201.146 201.146 0 0 0-3.889 5.392 233.315 233.315 0 0 0-3.703 5.48 214.99 214.99 0 0 0-3.163 4.978c-.037.06-.074.126-.11.193l4.762 9.407a213.91 213.91 0 0 1 3.081-5.97Z"/><path fill="url(#c)" d="M48.383 87.735a421.232 421.232 0 0 0-1.896 5.296c-.008.022-.015.052-.03.074-.089.252-.185.511-.266.763-.43 1.215-.8 2.311-1.652 4.793 1.4.637 2.526 2.325 3.592 4.236a7.624 7.624 0 0 0-2.489-5.273c6.911.31 12.867-1.437 15.948-6.489.274-.452.526-.919.755-1.43-1.4 1.778-3.14 2.526-6.407 2.348-.007 0-.014.008-.022.008.008 0 .015-.008.022-.008 4.815-2.155 7.222-4.222 9.363-7.644.504-.814 1-1.696 1.504-2.681-4.208 4.318-9.074 5.548-14.207 4.615l-3.852.422c-.126.326-.237.644-.363.97Z"/><path fill="url(#d)" d="M50.183 79.12c.83-2.147 1.689-4.325 2.563-6.517a441.794 441.794 0 0 1 2.593-6.341 748.43 748.43 0 0 1 2.71-6.392c.934-2.17 1.897-4.333 2.882-6.489a352.9 352.9 0 0 1 2.948-6.34c.355-.756.726-1.511 1.089-2.26.63-1.296 1.266-2.585 1.91-3.859.038-.066.067-.14.104-.207l-4.762-9.407a6.52 6.52 0 0 1-.237.378 219.844 219.844 0 0 0-3.296 5.555 208.386 208.386 0 0 0-3.223 5.837 248.13 248.13 0 0 0-2.6 5.044c-.17.34-.333.689-.503 1.03a143.907 143.907 0 0 0-2.822 6.185 115.935 115.935 0 0 0-2.54 6.429c-.49 1.34-.927 2.63-1.334 3.874-.333 1.059-.645 2.126-.956 3.185a99.189 99.189 0 0 0-1.83 7.451l4.786 9.444c.63-1.688 1.281-3.407 1.948-5.14.2-.496.378-.985.57-1.46Z"/><path fill="url(#e)" d="M42.828 76.595c-.6 3.022-1.03 6.03-1.245 9.022l-.022.31c-1.496-2.392-5.488-4.725-5.481-4.703 2.867 4.148 5.037 8.267 5.355 12.31-1.533.312-3.63-.14-6.051-1.029 2.526 2.326 4.422 2.963 5.17 3.14-2.326.149-4.74 1.742-7.178 3.579 3.563-1.452 6.445-2.03 8.504-1.563-3.274 9.258-6.548 19.48-9.83 30.339 1.008-.296 1.608-.978 1.941-1.889.585-1.963 4.46-14.866 10.54-31.806.178-.481.349-.97.526-1.452.045-.14.097-.274.149-.4.637-1.777 1.31-3.592 1.992-5.444.156-.422.311-.844.474-1.266 0-.008.008-.015.008-.023l-4.793-9.444a6.652 6.652 0 0 1-.06.319Z"/><path fill="url(#f)" d="M67.723 41.5c-.14.282-.274.563-.415.845-.414.851-.83 1.718-1.259 2.607-.46.963-.918 1.94-1.385 2.948-.237.504-.474 1.015-.711 1.533a414.713 414.713 0 0 0-2.163 4.8 388.508 388.508 0 0 0-2.748 6.326c-.881 2.088-1.793 4.244-2.696 6.48-.867 2.12-1.74 4.312-2.63 6.563a411.904 411.904 0 0 0-2.392 6.208c-.037.096-.074.207-.111.303-.8 2.111-1.608 4.282-2.415 6.504-.015.051-.037.096-.052.155l3.852-.422c-.074-.015-.156-.022-.23-.037 4.6-.57 10.726-4.015 14.674-8.259 1.822-1.955 3.474-4.266 5-6.97 1.133-2.007 2.207-4.244 3.229-6.71a98.187 98.187 0 0 0 2.563-7.023c-1.06.556-2.267.97-3.6 1.252-.237.052-.474.096-.718.14-.245.045-.49.082-.741.112 0 0 .007 0 .007-.007 4.296-1.652 7-4.837 8.963-8.74-1.126.77-2.963 1.777-5.163 2.258a16.586 16.586 0 0 1-1.14.208h.014c1.496-.622 2.748-1.326 3.837-2.148.237-.178.467-.356.674-.548.333-.29.645-.593.956-.904.192-.207.377-.415.563-.63.43-.51.83-1.059 1.2-1.651.11-.186.23-.363.333-.556.148-.274.281-.548.415-.807a43.48 43.48 0 0 0 1.459-3.222c.192-.474.355-.904.503-1.319.06-.163.111-.318.163-.474.156-.452.274-.852.37-1.207.149-.534.238-.956.282-1.26-.148.112-.31.23-.504.341-1.296.778-3.518 1.474-5.31 1.808l3.533-.386-3.533.386c-.023.007-.052.007-.082.014-.185.03-.355.06-.54.082l.088-.045-12.095 1.326a.37.37 0 0 1-.045.126Z"/><path fill="url(#g)" d="M81.337 17.057a182.438 182.438 0 0 0-3.518 5.651 247.572 247.572 0 0 0-3.674 6.4 280.913 280.913 0 0 0-3.289 6.155 332.218 332.218 0 0 0-3.074 6.111l12.096-1.326c3.526-1.622 5.096-3.081 6.622-5.207.4-.585.815-1.192 1.215-1.83a74.934 74.934 0 0 0 3.548-6.2c1.051-2.05 1.977-4.08 2.688-5.917a30.467 30.467 0 0 0 1.067-3.2c.222-.837.393-1.637.526-2.4-4.689.807-10.459 1.578-14.207 1.763Z"/><path fill="#BD202E" d="M73.516 58.729c-.245.044-.49.081-.741.111.252-.022.503-.067.74-.111Z"/><path fill="#BD202E" d="M73.516 58.729c-.245.044-.49.081-.741.111.252-.022.503-.067.74-.111Z" opacity=".35"/><path fill="url(#h)" d="M73.516 58.729c-.245.044-.49.081-.741.111.252-.022.503-.067.74-.111Z"/><path fill="#BD202E" d="M75.449 52.566c.074-.007.155-.022.23-.037-.075.008-.149.03-.23.037Z"/><path fill="#BD202E" d="M75.449 52.566c.074-.007.155-.022.23-.037-.075.008-.149.03-.23.037Z" opacity=".35"/><path fill="url(#i)" d="M75.449 52.566c.074-.007.155-.022.23-.037-.075.008-.149.03-.23.037Z"/><path fill="#BD202E" d="M75.449 52.566c.007 0 .007-.007 0 0 .007-.007.007 0 0 0Z"/><path fill="#BD202E" d="M75.449 52.566c.007 0 .007-.007 0 0 .007-.007.007 0 0 0Z" opacity=".35"/><path fill="url(#j)" d="M75.449 52.566c.007 0 .007-.007 0 0 .007-.007.007 0 0 0Z"/><defs><linearGradient id="a" x1="80.277" x2="107.078" y1="10.871" y2="3.42" gradientUnits="userSpaceOnUse"><stop stop-color="#F59723"/><stop offset=".312" stop-color="#F69822"/><stop offset=".838" stop-color="#E87726"/></linearGradient><linearGradient id="b" x1="21.611" x2="76.124" y1="131.156" y2="14.252" gradientUnits="userSpaceOnUse"><stop offset=".323" stop-color="#9C2063"/><stop offset=".63" stop-color="#C82037"/><stop offset=".751" stop-color="#CC2135"/><stop offset="1" stop-color="#E87726"/></linearGradient><linearGradient id="c" x1="39.903" x2="72.387" y1="122.505" y2="52.841" gradientUnits="userSpaceOnUse"><stop stop-color="#282661"/><stop offset=".095" stop-color="#662E8C"/><stop offset=".788" stop-color="#9E2064"/><stop offset=".949" stop-color="#CC2032"/></linearGradient><linearGradient id="d" x1="23.576" x2="78.089" y1="124.078" y2="7.174" gradientUnits="userSpaceOnUse"><stop offset=".323" stop-color="#9C2063"/><stop offset=".63" stop-color="#C82037"/><stop offset=".751" stop-color="#CC2135"/><stop offset="1" stop-color="#E87726"/></linearGradient><linearGradient id="e" x1="29.138" x2="57.786" y1="116.292" y2="54.855" gradientUnits="userSpaceOnUse"><stop stop-color="#282661"/><stop offset=".095" stop-color="#662E8C"/><stop offset=".788" stop-color="#9E2064"/><stop offset=".949" stop-color="#CC2032"/></linearGradient><linearGradient id="f" x1="35.68" x2="90.192" y1="129.722" y2="12.818" gradientUnits="userSpaceOnUse"><stop offset=".323" stop-color="#9C2063"/><stop offset=".63" stop-color="#C82037"/><stop offset=".751" stop-color="#CC2135"/><stop offset="1" stop-color="#E87726"/></linearGradient><linearGradient id="g" x1="31.692" x2="86.205" y1="136.692" y2="19.788" gradientUnits="userSpaceOnUse"><stop offset=".323" stop-color="#9C2063"/><stop offset=".63" stop-color="#C82037"/><stop offset=".751" stop-color="#CC2135"/><stop offset="1" stop-color="#E87726"/></linearGradient><linearGradient id="h" x1="39.272" x2="93.784" y1="131.397" y2="14.493" gradientUnits="userSpaceOnUse"><stop offset=".323" stop-color="#9C2063"/><stop offset=".63" stop-color="#C82037"/><stop offset=".751" stop-color="#CC2135"/><stop offset="1" stop-color="#E87726"/></linearGradient><linearGradient id="i" x1="38.865" x2="93.378" y1="131.208" y2="14.303" gradientUnits="userSpaceOnUse"><stop offset=".323" stop-color="#9C2063"/><stop offset=".63" stop-color="#C82037"/><stop offset=".751" stop-color="#CC2135"/><stop offset="1" stop-color="#E87726"/></linearGradient><linearGradient id="j" x1="69.406" x2="81.455" y1="65.493" y2="39.654" gradientUnits="userSpaceOnUse"><stop offset=".323" stop-color="#9C2063"/><stop offset=".63" stop-color="#C82037"/><stop offset=".751" stop-color="#CC2135"/><stop offset="1" stop-color="#E87726"/></linearGradient></defs></svg>
